X:68
T:Quince Dillonâ€™s High-D Tune
M:C
L:1/8
N:From A Henry Reed Reunion, Jabbour, Levy & Reed
N:Transcribed by Bruce Thomson
K:D
z6ag|:â€Dâ€fd2d3Ac|defg abaf|â€Câ€e=c2c3AB|=cdef =geag|
â€œDâ€fd2d3Ac|defg a2cB|â€Aâ€ABcd egfe|[1â€³Dâ€d3dd2ag:|[2â€ Dâ€d3dd4||
|:â€Dâ€D2D2F2A2|dcde fed2|â€Aâ€A2ABc2(3efg|a2a2â€³Dâ€dâ€™2z2|
â€œDâ€D2D2F2A2|dcde fedB|â€Aâ€ABAG FDEC|â€Dâ€D3DD4:|
||â€Dâ€D2F2A2dc|â€Gâ€BG3G4|â€Aâ€ABcd e2ag|â€Dâ€fd3d4|
â€œDâ€DEFG A2dc|â€Gâ€BG3G4|â€Aâ€ABcde2ag|â€Dâ€fd3d4||
|:â€Dâ€A2d2f2ab|â€Gâ€ag3g4|â€Aâ€ABcd e2ag|â€Dâ€fd3d4:|

